ufans-frontend-package/public/assets/images/new-settings/your-cards.svg

<?xml version="1.0"?>
<svg xmlns="http://www.w3.org/2000/svg" xmlns:xlink="http://www.w3.org/1999/xlink" xmlns:svgjs="http://svgjs.com/svgjs" version="1.1" width="512" height="512" x="0" y="0" viewBox="0 0 512 512" style="enable-background:new 0 0 512 512" xml:space="preserve" class=""><g><g xmlns="http://www.w3.org/2000/svg"><path d="m509.006 214.26c6.134-16.077 2.747-34.985-10.187-47.919l-153.171-153.171c-17.546-17.546-46.096-17.544-63.64 0l-172.201 172.202h-64.807c-24.813 0-45 20.187-45 45v236.617c0 24.813 20.187 45 45 45h422c24.813 0 45-20.187 45-45v-236.617c0-5.677-1.067-11.106-2.994-16.112zm-32.58-27.887c-3.041-.651-6.193-1.001-9.426-1.001h-32.503l20.464-20.464zm-42.678-42.678-41.677 41.677h-42.428l62.891-62.891zm-130.526-109.312c2.925-2.924 6.766-4.387 10.607-4.387s7.682 1.463 10.606 4.387l66.886 66.886-84.104 84.104h-154.985zm178.778 432.606c0 8.271-6.729 15-15 15h-422c-8.271 0-15-6.729-15-15v-236.617c0-8.271 6.729-15 15-15h422c8.271 0 15 6.729 15 15z" fill="#6661e7" data-original="#000000" class=""/><path d="m59 406.585h69.903v30h-69.903z" fill="#6661e7" data-original="#000000" class=""/><path d="m167.032 406.585h69.902v30h-69.902z" fill="#6661e7" data-original="#000000" class=""/><path d="m275.065 406.585h69.902v30h-69.902z" fill="#6661e7" data-original="#000000" class=""/><path d="m383.097 406.585h69.903v30h-69.903z" fill="#6661e7" data-original="#000000" class=""/><path d="m136.267 255.372h-51.267c-13.785 0-25 11.215-25 25v40c0 13.785 11.215 25 25 25h51.267c13.785 0 25-11.215 25-25v-40c0-13.785-11.215-25-25-25zm-5 60h-41.267v-30h41.267z" fill="#6661e7" data-original="#000000" class=""/></g></g></svg>

<svg xmlns="http://www.w3.org/2000/svg" width="512" height="511.978" viewBox="0 0 512 511.978">
  <g id="your-cards" transform="translate(0 -0.011)">
    <g id="Group_1" data-name="Group 1">
      <path id="Path_1" data-name="Path 1" d="M509.006,214.26a45.054,45.054,0,0,0-10.187-47.919L345.648,13.17a45.052,45.052,0,0,0-63.64,0l-172.2,172.2H45a45.051,45.051,0,0,0-45,45V466.989a45.051,45.051,0,0,0,45,45H467a45.051,45.051,0,0,0,45-45V230.372a44.749,44.749,0,0,0-2.994-16.112Zm-32.58-27.887a44.98,44.98,0,0,0-9.426-1H434.5l20.464-20.464ZM433.748,143.7l-41.677,41.677H349.643l62.891-62.891ZM303.222,34.383a15.015,15.015,0,0,1,21.213,0l66.886,66.886-84.1,84.1H152.232ZM482,466.989a15.017,15.017,0,0,1-15,15H45a15.017,15.017,0,0,1-15-15V230.372a15.017,15.017,0,0,1,15-15H467a15.017,15.017,0,0,1,15,15Z" fill="#e44499"/>
      <path id="Path_2" data-name="Path 2" d="M59,406.585h69.9v30H59Z" fill="#e44499"/>
      <path id="Path_3" data-name="Path 3" d="M167.032,406.585h69.9v30h-69.9Z" fill="#e44499"/>
      <path id="Path_4" data-name="Path 4" d="M275.065,406.585h69.9v30h-69.9Z" fill="#e44499"/>
      <path id="Path_5" data-name="Path 5" d="M383.1,406.585H453v30H383.1Z" fill="#e44499"/>
      <path id="Path_6" data-name="Path 6" d="M136.267,255.372H85a25.028,25.028,0,0,0-25,25v40a25.028,25.028,0,0,0,25,25h51.267a25.028,25.028,0,0,0,25-25v-40a25.028,25.028,0,0,0-25-25Zm-5,60H90v-30h41.267Z" fill="#e44499"/>
    </g>
  </g>
</svg>
